X:552
%%etbk:tnset id:497,pos:1,rep:3x,ant:
%%etbk:video src:ytube,cde:KzePxvjpOoc,desc:
%%etbk:pldat 2016-06-12T13:31,2016-03-22T16:12,2016-01-01T15:31,2015-12-27T14:06,2015-12-24T15:26,2015-12-22T16:19,2015-04-29T22:03,2015-03-23T18:54,2014-12-30T18:18,2014-09-16T18:58,2014-09-11T18:52,2014-07-05T14:10,2014-06-15T14:10,2014-05-21T19:03,2014-05-17T20:46,2014-05-14T16:19,2014-05-13T18:26,2014-05-12T18:45,2014-05-11T13:03,2014-05-08T18:12,2014-05-07T18:08,2014-05-05T18:37,2014-05-02T16:34,2014-05-01T19:30,2013-12-17T17:13,2013-12-11T18:28,2013-12-09T19:01,2013-12-06T16:10
T:Cliffs Of Moher (Edor), The
Z: Piano Box Version by Martin Fleischmann
H: Created 2013-12-05 /  Last Modified 2014-05-01
M:6/8
R:Jig
K:Edor
|:!2!B!4!ee e2d|!2!B!4!ee !3!d!2!B!1!A|!3!F!1!D!2!D !1!A,!2!D!1!D|!3!FED !2!EF!4!A|
!2!Bee e2d|B2e dBA|FDD A,DD|1 FED E2A:|2 FED E2E||
|:!5!B2B !4!A!3!F!2!E|B2B AF!2!E|!3!FDD A,DD|FED !2!EF!4!A|
!5!BEB AFE|!5!BEB AFE|FDD A,DD|FED E2E:||


